X: 0
T:Säckpipslåt från Norra Råda
O:Värmland
Z: Jimmy U, 2011-07-21
N: Spelbar på säckpipa i E med viss modifikation
M:4/4
K:Edorisk
EF|G2FGE2FG|A2GAF2GA|B2cB AGFG|E2FED2EF|
G2FGE2FG|A2GAF2GA|B2cB AGFG|E6:|]|:EG|
B2GB dcAc|cBdfe2ed|B2GB dcAc|cBBA GFGA|
B2GB dcAc|cBdfe2ed|B2cB AGFG|E6:|]
